X:1
T: The Humors of Glynn
C:
R:Jig
Q:180
K:G
M:6/8
L:1/16
d2|g2d2d2 e2d2c2|B2G2G2 G4A2|B2G2B2 B2d2B2|c2A2A2 A4d2|g2d2d2 e2d2c2|B2G2G2 G2A2B2|c2B2c2 A2d2c2|B2G2G2 G4d2|
g2d2d2 e2d2c2|B2G2G2 G4A2|B2G2B2 B2d2B2|c2A2A2 A4d2|g2d2d2 e2d2c2|B2G2G2 G2A2B2|c2B2c2 A2d2c2|B2G2G2 G4B2|
d2e2f2 g2f2g2|e2a2a2 a4ga|b2g2e2 e2d2B2|B2A2A2 A4d2|g2d2d2 e2d2c2|B2G2G2 G2A2B2|c2B2c2 A2d2c2|B2G2G2 G4B2|
d2e2f2 g2f2g2|e2a2a2 a4ga|b2g2e2 e2d2B2|B2A2A2 A4d2|g2d2d2 e2d2c2|B2G2G2 G2A2B2|c2B2c2 A2d2c2|B2G2G2 G4||
